X: 628
T: Guanggunr kuqi
%%abc-version 2.0
%%abcx-abcm2ps-target-version 5.9.1 (29 Sep 2008)
%%abc-creator hum2abc beta
%%abcx-conversion-date 2013/10/02 07:52:30
%%abc-edited-by Helmut Schaffrath
%%humdrum-veritas 595256652
%%humdrum-veritas-data 543701891
%%continueall 1
%%barnumbers 0
L: 1/8
M: 2/4
K: F
d> d d d [I:setbarnb 1]| 
d f/ A/c2 | 
d d/ c/ A c | 
d c/ A/G2 | 
G G/ F/ G A | 
c Ac2 | 
G/ A/ G/ F/ D C/ D/ | 
F4 | 
G G/ F/ G A | 
G2(3G F D | 
G G/ F/ D F/ D/ | 
C4 |]  



